!!!OTL: Staendchen.
!!!OTL-incipit: IN DEM HIMMEL RUHT DIE ERDE
!!!COM: F. Otto
!!!ARE: Europa, Mitteleuropa, Deutschland
!!!SCT: F0746
!!!TXL: @@DE
!!!YEM: Copyright 1995, estate of Helmut Schaffrath.
**kern	**text
*ICvox	*
*M3/4	*
*k[f#c#]	*
*D:	*
=1	=1
!LO:TX:a:t=Adagio.	!
{2dd/	Jn
4ee/	dem
=2	=2
2ff#/	Him-
4aa/	-mel
=3	=3
(4aa/	ruht
4gg/)	.
4ff#/	die
=4	=4
2ff#/	Er-
4ee/}	-de,
=5	=5
{2dd/	Mond
4ee/	und
=6	=6
2ff#/	Ster-
4aa/	-ne
=7	=7
(4aa/	hal-
4gg/)	.
4ff#/	-ten
=8	=8
2ee/}	Wacht,
{8ee/	auf
8ee/	der
=9	=9
4.ee/	Erd'
8ee/	ein
8ee#/	klei-
8ee#/	-ner
=10	=10
4ff#/	Gar-
4cc#/	-ten,
4r}	.
=11	=11
{8.ff#/	ſchlummert
16ff#/	.
8ff#/	in
8ff#/	Nacht
8.ff#/	Blumen
16ff#/	.
=12	=12
2.ff#/}	Pracht,
=13	=13
{2ff#/	gu-
4ee/	-te
=14	=14
(2dd/	Nacht,
4gg/)}	.
=15	=15
{2ff#/	gu-
(8ff#/L	-te
8eeJ)	.
=16	=16
2dd/;}	Nacht.
{8b/	Jn
8cc/	dem
=17	=17
4.dd/	Gar-
8dd/	-ten
8ee/	ſteht
8ff#/	ein
=18	=18
4gg/	Häus-
4dd/}	.
{8dd/	-chen,
8dd/	.
=19	=19
4.dd/	ſtill_von
8dd/	Linden
8dd/	ü-
8dd/	-ber-
=20	=20
2dd/}	-dacht,
{8dd/	vor
8b/	dem
=21	=21
4.a	klei-
8b/	-nen
8cc/	Er-
8ee/	-ker-
=22	=22
(8.ee/L	-fen-
16ddJ)	.
4dd/}	-ſter,
{8dd/	hält
8gg/	ein
=23	=23
(8gg/	Vo-
4ff#/)	.
8ee/	-gel
8dd/	ſin-
8cc/	-gend
=24	=24
(2b/	Wacht,
4dd/)}	.
=25	=25
{2ee/	gu-
4gg/	-te
=26	=26
2.dd/}	Nacht.
=27	=27
{2dd/	gu-
4dd/	-te
=28	=28
[2.dd/	Nacht.
=29	=29
2dd/]	.
4r;}	.
=30	=30
{2dd/	Jn
4ee/	der
=31	=31
2ff#/	Kam-
4aa/	-mer
=32	=32
(4aa/	ſchläft
4gg/)	.
4ff#/	ein
=33	=33
2ff#/	Mädchen,
4ee/}	.
=34	=34
{2dd/	träumend
4ee/	.
=35	=35
2ff#/	von
4aa/	der
=36	=36
(4aa/	Blu-
4gg/)	.
4ff#/	-men
=37	=37
2ee/}	Pracht,
{8ee/	ihr
8ee/	im
=38	=38
4.ee/	Her-
8ee/	-ʒen
8ee#/	ruht
8ee#/	der
=39	=39
4ff#/	Himmel
4cc#/}	.
{8ff#/	und
8ff#/	die
=40	=40
4.ff#/	En-
8ff#/	-gel
8.ff#/	hal-
16ff#/	-ten
=41	=41
2.ff#/}	Wacht,
=42	=42
{2ff#/	gu-
4ee/	-te
=43	=43
(2dd/	Nacht,
4gg/)}	.
=44	=44
{2ff#/	gu-
(8ff#/L	-te
8eeJ)	.
=45	=45
2dd/}	Nacht.
{8.aa/	.
16a	.
=46	=46
2dd/}	.
{8.ff#/	.
16a	.
=47	=47
[2.dd/	.
=48	=48
4dd/]	.
4r	.
4r}	.
==	==
!!!AGN: Geselligkeits -, Tageszeiten - Lied, Abend; Staendchen
!!!ONB: ESAC (Essen Associative Code) Database: FINK
!!!AMT: simple triple
!!!AIN: vox
!!!EED: Helmut Schaffrath
!!!EEV: 1.0
!!Text: R. Reinick
!!!GTL: Liedertafel- und Gesellschaftslieder.
!!!source: Musikalischer Hausschatz der Deutschen. Eine Sammlung von über 1000 Liedern und Gesängen mit Singstimmen und Klavierbegleitung. Leipzig, Litterarisches Verlags-Haus.
!!!page: 511
!!!ENC: Anna Maria Matuszewska
!!!EEV: 2025/03/19
*-	*-
